X:1
T:Title
%%score { ( 1 3 ) | 2 }
L:1/8
M:4/4
K:A
V:1 treble nm="Grand Piano"
V:3 treble 
V:2 bass 
V:1
 z4 z2[Q:1/4=90] [Ec][DB] | [CA]>[CG] [CA][CB] [CA]GFE | F>F EC E2 EE | [CA]>[DG] [EA]B cBAc | %4
[M:9/8] B>[Ge][Ge] [Ge] [Ge]2- [Ge][Ge]d |[M:4/4] c>c cd ecAE | F>F F[FA] [Fd]2 [FA]F | %7
 E>F GA BEG[GB] |[M:7/8] [Gd]>[Gd][Gc] [DEB] [CEA]3 |[M:1/4] [CEA][CEA] | %10
[M:4/4] [FA]<[FA] [FA]>[FB] [FA]2 [DF]2 | z2 A,2 A,2 [A,EA]B | cc c>d e2 c2 | [GB]6 z2 | %14
 c>[DB] [CA][DF] [CE]2 [A,C][CE] |[M:9/8] F>FF [FA] [Fd]2- [Fd][Fd][Fd] |[M:4/4] c<c c>d c2 B2 | %17
[M:3/4] [CA]6 |] %18
V:2
 z4 z2 [A,,A,][A,,E,] | [A,,E,]>[A,,E,] [A,,E,][A,,E,] [A,,E,]G,F,E, | F,>F, E,C, E,2 E,E, | %3
 [A,,E,]>[B,,E,] [C,A,][E,G,E] [A,E][A,DE][A,CE][A,E] | %4
[M:9/8] [E,G,E]>[E,B,][E,B,] [E,B,] [E,B,]2- [E,B,][E,B,][K:treble][G,B,E] | %5
[M:4/4] [A,E]>[A,E] [A,E][A,B,E] [A,CA][A,EA][K:bass][A,CE][C,A,] | %6
 [D,A,D]>[D,A,D] [D,A,D][D,A,] [D,A,]2 [D,A,][D,A,D] | %7
 [E,G,D]>[E,A,D] [E,B,D][E,A,C] [E,G,D][E,G,][E,B,E][E,D] |[M:7/8] [E,B,]>[E,E][E,E] E, A,,3 | %9
[M:1/4] A,,A,, |[M:4/4] [D,D]<[D,D] [D,D]>[D,D] [D,D]2 [D,A,]2 | [A,,A,]2 A,,2 A,,2 C,[E,G,E] | %12
 [A,E][A,E] [A,E]>[A,B,E] [A,CA]2 [A,EA]2 | [E,E]2 E,2 E,2 [E,B,][G,B,E] | %14
 [A,E]>[A,,E,] [A,,E,][A,,A,] [A,,A,]2 [A,,E,][A,,A,] | %15
[M:9/8] [D,A,D]>[D,A,D][D,A,D] [D,A,] [D,A,]2- [D,A,][D,A,][D,A,] | %16
[M:4/4] [E,A,E]<[E,A,E] [E,A,E]>[E,A,F] [E,G,E]2 [E,G,D]2 |[M:3/4] [A,,E,]6 |] %18
V:3
 x8 | x8 | x8 | x8 |[M:9/8] x9 |[M:4/4] x8 | x8 | x8 |[M:7/8] x7 |[M:1/4] x2 |[M:4/4] x8 | %11
 [CE]6 z2 | x8 | z2 E2 E2 [Ge]d | x8 |[M:9/8] x9 |[M:4/4] x8 |[M:3/4] x6 |] %18

